X:17370
T:The Yellow Tinker
M:4/4
L:1/8
Q:240
C:Trad Irish
R:reel
K:A Dor
EAAG EGDG|EAA2 fAeA|EAAG EDEF|1 G2 BG cGBG:|2 G2Bd dBGB||!
A2eA fAeA|fAeA dBGB|A2eA fAeA|d2BG DGBG|!
A2eA fAeA|fAeA dBGd|e3f g3e|d2 BG DGBG||
%  ABC2Win Version 2.1 10/9/99
